www/assets/icons/castle.svg

<svg xmlns="http://www.w3.org/2000/svg" width="24" height="24" viewBox="0 0 24 24" fill='currentColor'><path d="M21 9v2h-2V3h-2v2h-2V3h-2v2h-2V3H9v2H7V3H5v8H3V9H1v12h9v-3c0-1.1.9-2 2-2s2 .9 2 2v3h9V9zm-10 3H9V9h2zm4 0h-2V9h2z"/></svg>

<svg width="24" height="24" viewBox="0 0 24 24" xmlns="http://www.w3.org/2000/svg" fill='currentColor'><path d="M21 9V11H19V3H17V5H15V3H13V5H11V3H9V5H7V3H5V11H3V9H1V21H10V18C10 16.9 10.9 16 12 16C13.1 16 14 16.9 14 18V21H23V9H21ZM11 12H9V9H11V12ZM15 12H13V9H15V12Z"/></svg>
